X:26
T: Op engem Baam de Kueder stzt, S. 33
N: R0050
O: Luxemburg
S: D'Fraen um Kanddaaf an der aler Zeit, Luxemburg 1929]
R: Liebeslied]
M: 2/4
L: 1/16
K: G
 | B2BBB2AG | G2F2F4 |
c2c2c2BA | A2G2G4 |
D2EfG2G2 | A2A2B3
d | d2c2B3A | B2A2G4 |
B4A3F | G4z4

@@@ Tune index: 8080
